assets/icons/lock_good_colorful.svg

<svg fill="none" height="25" viewBox="0 0 25 25" width="25"><path clip-rule="evenodd" d="m12.5 24c6.351 0 11.5-5.149 11.5-11.5s-5.149-11.5-11.5-11.5-11.5 5.149-11.5 11.5 5.149 11.5 11.5 11.5zm0 1c6.904 0 12.5-5.596 12.5-12.5s-5.596-12.5-12.5-12.5-12.5 5.596-12.5 12.5 5.596 12.5 12.5 12.5z" fill="#6d7b82" fill-rule="evenodd"/><path d="m16.568 9.108a1 1 0 0 1 1.414 1.415l-6.366 6.366a1 1 0 0 1 -1.418.001l-3.182-3.182a1 1 0 1 1 1.414-1.414l2.476 2.476z" fill="#038c6a"/></svg>

<svg width="25" height="25" viewBox="0 0 25 25" fill="none"><g id="lock_good_colorful"><path fill-rule="evenodd" clip-rule="evenodd" d="M12.5 24C18.851 24 24 18.851 24 12.5S18.851 1 12.5 1 1 6.149 1 12.5 6.149 24 12.5 24Zm0 1C19.404 25 25 19.404 25 12.5S19.404 0 12.5 0 0 5.596 0 12.5 5.596 25 12.5 25Z" fill="#6D7B82" yggColor="iconWeak"/><path d="M16.568 9.108a1 1 0 0 1 1.414 1.415l-6.366 6.366a1 1 0 0 1-1.418.001l-3.182-3.182a1 1 0 1 1 1.414-1.414l2.476 2.476 5.662-5.662Z" fill="#038C6A" yggColor="iconSuccess"/></g></svg>
